!!!SOCIAL_FUNCTION:	songs of the peyote ceremony
!!!PDT:	1936
!!!OTL: No_53_Modern_Song_Used_in_Peyote_Ceremony.krn
!!!REG: Oklahoma and Montana
!!!LANG: Tone
!!!LING_GROUP: Algonquin
**kern
*staff1
=1-
*clefF4
*k[b-e-a-d-g-]
*M3/4
2r
8c\L
8c\J
=2
(8f\L
8en\J)
8f\L
8f\J
8f\L
8f\J
=3
*M5/8
4f\
8c\L
8dn\
8en\J
=4
(8f\L
8e-\)
8d-\
8d-\
8d-\J
=5
*M2/4
8d-\L
8d-\J
8d-\L
8d-\J
=6
*M3/4
(4d-\
8A-\)
8r
(8f\L
8e-\J)
=7
*M2/4
8d-\L
8d-\J
8d-\L
8d-\J
=8
*M7/8
(4d-\
16A-\)
16r
8d-\L
8d-\
(8f\
8e-\J)
=9
8d-\L
8d-\
16d-\Jk
16r
8A-\L
8A-\
8A-\J
8r
=10
*M3/4
4A-\
4A-\
4A-\
=11
4A-\
4r
8A-\L
8A-\J
=12
8d-\L
8d-\J
8d-\L
8d-\J
8d-\L
8d-\J
=13!|:
*M7/8
(4d-\
16A-\)
16r
8d-\L
8d-\
(8f\
8e-\J)
=14
8d-\L
8e-\
8d-\
8A-\
8A-\
8A-\
8A-\J
=15
*M2/4
(8d-\L
8A-\J)
8F\
8r
=16
4F\
8F\L
8E-\J
=17
(8F\L
8E-\J)
4D-\
=18
8D-\L
8D-\J
8D-\L
8D-\J
=19
4D-\
8AA-/
8r
=20
8D-\L
8D-\J
(8F\L
8E-\J)
=21
8F\L
8F\J
8F\L
8F\J
=22
*M5/8
(8F\L
8E-\)
16D-\Jk
16r
8E-\L
8E-\J
=23
8F\L
8E-\
8D-\
8D-\
8D-\J
=24
*M2/4
8D-\L
8D-\J
8D-\L
8D-\J
=25
*M3/4
4D-\
8AA-/
8r
(8F\L
8E-\J)
=26
*M2/4
8D-\L
8D-\J
8D-\L
8D-\J
=27
4D-\
8AA-/
8r
=28
8D-\L
8D-\J
(8F\L
8E-\J)
=29
*M7/8
8E-\L
8E-\
16E-\Jk
16r
8AA-/L
8AA-/
8AA-/J
8r
=30
*M3/4
2AA-/
4AA-/
=31
4AA-/
4r
8A-\L
8A-\J
=32
4d-\
8d-\L
8d-\J
8d-\L
8d-\J
=33:|!
4AA-/
2r
==
*-
